X: 13148
T: First Month Of Summer, The
R: reel
M: 4/4
K: Amajor
AF~F2 E2CE|A,2CE dBcB|AF~F2 EA,~A,2|CEAB c2cB|
AF~F2 FECE|A,ECE dBcB|AF~F2 EA,~A,2|CEAB c2Bc||
Ac~c2 ecfc|ecAc defa|ec~c2 acec|dBBA Bcdf|
ec~c2 ac~c2|ec~c2 defb|(3aba ga faec|dBBA BdcB||
GECE D2B,D|G,DB,D cABA|GECE D2B,E|DEGA (3Bcd BA:|
GB~B2 dBeB|dBGB cdeg|dB~B2 eBdB|cAAG ABce|
dB~B2 dBeB|dBGB cdef|gzfd egdB|cAAG AcBA||
AFDF E2CE|A,ECE dBcB|AFDF E2CF|EFAB cecB:|
Ac~c2 ecfc|ecAc defa|ec~c2 fcec|dBBA Bcdf|
ec~c2 ecfc|ecAc defg|azge faec|dBBA BdcB||

